X: 1
T: Donald MacDonald's Fancy
C: J. MacFarlane
R: reel
B: James Hunter, ed. "Kerr's Thistle Collection" p. 10
Z: 2015 John Chambers <jc:trillian.mit.edu>
M: C|
L: 1/8
K: Bb
F |\
"Bb"B2FE DFBd | "F"ec"Bb"dB "F"cAFA |\
"Bb"B2FE DFBD | "Cm"EG"F"CF "Bb"DB,B, :|
|: f |\
"Gm"bBAB "F"aBAB | "Eb"gBAB "Bb"fBAB |\
[1 "Cm"eF=EF "Bb"dFEF | "Cm"cBAG "F"FEDC :|\
[2 "Cm"edcB "(F7)"AGFE | "Bb"DB,"F"CA, "Bb"B,3 |]
